X:42
T:The Bush In Bloom
N:reel  Allan's #42
N:Trad/Anon
B:Allan's Irish Fiddler (pub. Mozart Allen,  Glascow) date unknown
Z:FROM ALLAN'S TO NOTEWORTHY, FROM NOTEWORTHY TO ABC, MIDI AND .TXT BY VINCE
BRENNAN Dec. 2002 (HTTP://WWW.SOSYOURMOM.COM)
I:abc2nwc
M:2/2
L:1/8
K:G
(ge)|d2(BG) AGEF|G2(Bd) efge|d2BG AGEd|eaag fdec|
d2(BG) AGEF|G2(Bd) efge|d2(BG) AGEF|GBAF G2:|
|:(ef)|g2(dg) Bgdf|gabg {b}agef|g2(dg) Bgdg egfa g2ga|
(bg)  (3ggg) abaf|gage dega|bgaf gfed|[1edef g2:|[2edef gage|]
